Sources/FrostedUI/Resources/Icons.xcassets/strikethrough12.imageset/strikethrough-12.svg

<svg width="12" height="12" viewBox="0 0 12 12" fill="none" xmlns="http://www.w3.org/2000/svg" data-fui-icon="true">
  <path
    d="M2.76562 7.80176C3.15911 7.67269 3.5837 7.88681 3.71289 8.28027C3.77993 8.48433 3.9362 8.8192 4.26367 9.09961C4.57823 9.36877 5.10577 9.63672 6.00781 9.63672C7.39827 9.6366 7.99729 8.99869 8.18103 8.52009C8.23736 8.37334 8.36677 8.25 8.52396 8.25H9.44107C9.60908 8.25 9.74614 8.38853 9.72105 8.55466C9.51976 9.88753 8.17959 11.1366 6.00781 11.1367C4.778 11.1367 3.89636 10.7599 3.28809 10.2393C2.69337 9.73008 2.41195 9.12818 2.28711 8.74805C2.15816 8.35472 2.37244 7.93108 2.76562 7.80176ZM6.00781 0.90918C8.50202 0.909338 9.53419 2.3986 9.73145 3.32031C9.81782 3.72507 9.55991 4.1241 9.15527 4.21094C8.75036 4.29756 8.35147 4.03861 8.26465 3.63379C8.21145 3.38639 7.77652 2.40933 6.00781 2.40918C4.26993 2.40918 3.76576 3.4045 3.76562 3.84082C3.76568 4.13064 3.83001 4.31186 3.90723 4.43457C3.98665 4.5606 4.11259 4.67687 4.31055 4.78516C4.70328 4.99984 5.24578 5.11793 5.92885 5.24495C5.94688 5.2483 5.96528 5.25 5.98362 5.25H11.25C11.6642 5.25 12 5.58581 12 6C12 6.38814 11.7051 6.70748 11.3271 6.74609L11.25 6.75H0.75C0.335807 6.75 3.29839e-05 6.41419 0 6C3.29839e-05 5.58581 0.335807 5.25 0.75 5.25H2.62909C2.63787 5.25 2.64238 5.24083 2.6377 5.2334C2.38784 4.83636 2.26568 4.36883 2.26562 3.84082C2.26574 2.38466 3.64688 0.90918 6.00781 0.90918Z"
    fill="currentColor"
  />
</svg>

<svg xmlns="http://www.w3.org/2000/svg" width="12" height="12" fill="none" data-fui-icon="true" viewBox="0 0 12 12"><path fill="currentColor" d="M2.766 7.802a.75.75 0 0 1 .947.478c.067.204.223.54.55.82.315.269.843.537 1.745.537 1.39 0 1.99-.638 2.173-1.117.056-.147.186-.27.343-.27h.917c.168 0 .305.139.28.305-.201 1.333-1.541 2.582-3.713 2.582-1.23 0-2.112-.377-2.72-.898a3.36 3.36 0 0 1-1-1.491.75.75 0 0 1 .478-.946M6.008.909C8.502.91 9.534 2.4 9.73 3.32a.75.75 0 0 1-1.466.314c-.054-.248-.488-1.225-2.257-1.225-1.738 0-2.242.996-2.242 1.432 0 .29.064.47.141.594.08.126.206.242.404.35.392.215.935.333 1.618.46a.3.3 0 0 0 .055.005h5.266a.75.75 0 0 1 .077 1.496l-.077.004H.75a.75.75 0 0 1 0-1.5h1.88c.008 0 .012-.01.008-.017-.25-.397-.372-.864-.372-1.392 0-1.456 1.38-2.932 3.742-2.932"/></svg>
